img/icon_cart.svg

<svg xmlns="http://www.w3.org/2000/svg" preserveAspectRatio="xMidYMid" width="20.62" height="19.719" viewBox="0 0 20.62 19.719"><defs><style>.cls-1{fill:#fff;fill-rule:evenodd}</style></defs><path d="M20.576 4.43l-1.204 8.91c-.184.923-1.024 1.636-1.882 1.636H6.61c-.86 0-1.697-.713-1.88-1.635L3.263 3.055c-.146-.732-.157-.977-.137-1.055H1a1 1 0 0 1 0-2h4a1 1 0 0 1 1 1 .99.99 0 0 1-.898.98h13.965c1.105 0 1.773 1.13 1.51 2.45zM5.418 3.945l1.313 9h10.673c-.005 0-.004-.002.004-.013l1.186-8.788s.028-.2.03-.2H5.42zm1.827 12.01a1.874 1.874 0 1 1 .002 3.748 1.874 1.874 0 0 1-.002-3.748zm9 0a1.874 1.874 0 1 1 0 3.748 1.874 1.874 0 0 1 0-3.748z" class="cls-1"/></svg>

<svg xmlns="http://www.w3.org/2000/svg" xmlns:xlink="http://www.w3.org/1999/xlink" preserveAspectRatio="xMidYMid" width="20.62" height="19.719" viewBox="0 0 20.62 19.719">
  <defs>
    <style>
      .cls-1 {
        fill: #fff;
        fill-rule: evenodd;
      }
    </style>
  </defs>
  <path d="M20.576,4.429 L19.372,13.341 C19.188,14.263 18.348,14.976 17.490,14.976 L6.610,14.976 C5.751,14.976 4.913,14.263 4.731,13.341 L3.262,3.054 C3.116,2.322 3.105,2.077 3.125,1.999 L1.000,1.999 C0.447,1.999 -0.000,1.552 -0.000,0.999 C-0.000,0.447 0.447,-0.001 1.000,-0.001 L5.000,-0.001 C5.552,-0.001 6.000,0.447 6.000,0.999 C6.000,1.516 5.604,1.925 5.102,1.979 L19.067,1.979 C20.172,1.979 20.840,3.110 20.576,4.429 ZM5.418,3.946 L6.731,12.946 L17.403,12.946 C17.398,12.946 17.399,12.944 17.407,12.933 L18.593,4.145 C18.593,4.145 18.621,3.946 18.624,3.946 L5.418,3.946 ZM7.245,15.956 C8.281,15.956 9.120,16.795 9.120,17.830 C9.120,18.865 8.281,19.704 7.245,19.704 C6.210,19.704 5.371,18.865 5.371,17.830 C5.371,16.795 6.210,15.956 7.245,15.956 ZM16.246,15.956 C17.281,15.956 18.120,16.795 18.120,17.830 C18.120,18.865 17.281,19.704 16.246,19.704 C15.210,19.704 14.371,18.865 14.371,17.830 C14.371,16.795 15.210,15.956 16.246,15.956 Z" class="cls-1"/>
</svg>
